dist/img/icons/activity/view.svg

<svg width="29" height="23" viewBox="0 0 29 23" fill="none" xmlns="http://www.w3.org/2000/svg">
<path d="M28.7726 10.9406C28.514 10.5891 22.3503 2.33337 14.4782 2.33337C6.60613 2.33337 0.442372 10.5886 0.183787 10.9401C0.0639187 11.1061 0 11.3008 0 11.4998C0 11.6989 0.0639187 11.8935 0.183787 12.0595C0.442372 12.411 6.60613 20.6667 14.4782 20.6667C22.3503 20.6667 28.5131 12.411 28.7726 12.0595C28.8925 11.8936 28.9565 11.699 28.9565 11.5C28.9565 11.301 28.8925 11.1065 28.7726 10.9406ZM14.4782 19.2012C8.67726 19.2012 3.12211 13.2843 1.6355 11.4931C3.12015 9.69997 8.66694 3.80381 14.4782 3.80381C20.2767 3.80381 25.7311 9.70177 27.2182 11.4944C25.733 13.2861 20.289 19.2012 14.4782 19.2012Z" fill="#A7B0BC"/>
<path d="M10.2641 15.393C9.69818 14.8769 9.24954 14.2631 8.94408 13.587C8.63861 12.911 8.48233 12.1862 8.4844 11.4544C8.48233 10.7227 8.63861 9.99781 8.94408 9.32176C9.24954 8.64572 9.69818 8.03195 10.2641 7.51585C10.8269 6.99706 11.4964 6.58571 12.2338 6.3057C12.9713 6.02568 13.7619 5.88256 14.5601 5.88454C15.3584 5.88247 16.1493 6.02557 16.8868 6.30559C17.6243 6.58561 18.2939 6.99698 18.8568 7.51585C19.4228 8.03189 19.8714 8.64565 20.1768 9.32171C20.4823 9.99776 20.6385 10.7227 20.6363 11.4544C20.6385 12.1862 20.4823 12.911 20.1768 13.5871C19.8714 14.2632 19.4228 14.877 18.8568 15.393C18.2939 15.9119 17.6243 16.3232 16.8868 16.6032C16.1493 16.8832 15.3584 17.0264 14.5601 17.0243C13.7619 17.0263 12.9713 16.8831 12.2338 16.6031C11.4964 16.3231 10.8269 15.9118 10.2641 15.393ZM10.1272 11.4544C10.1287 12.5321 10.5965 13.5652 11.4278 14.3272C12.2591 15.0892 13.3859 15.5178 14.5615 15.5191C15.7371 15.5178 16.8642 15.0892 17.6953 14.3271C18.5264 13.5651 18.9937 12.532 18.9949 11.4544C18.9936 10.377 18.5262 9.34402 17.695 8.58216C16.8639 7.8203 15.7369 7.39173 14.5615 7.39054C13.386 7.39173 12.2591 7.82033 11.4278 8.58227C10.5965 9.3442 10.1287 10.3773 10.1272 11.4549V11.4544Z" fill="#A7B0BC"/>
</svg>

<svg width="29" height="23" fill="none" xmlns="http://www.w3.org/2000/svg"><path d="M28.773 10.94c-.259-.35-6.423-8.607-14.295-8.607S.442 10.59.184 10.94A.955.955 0 000 11.5c0 .199.064.393.184.56.258.351 6.422 8.607 14.294 8.607 7.872 0 14.035-8.256 14.295-8.608a.954.954 0 00.183-.559.954.954 0 00-.183-.56zm-14.295 8.261c-5.8 0-11.356-5.917-12.842-7.708 1.484-1.793 7.03-7.69 12.842-7.69 5.799 0 11.253 5.899 12.74 7.691-1.485 1.792-6.929 7.707-12.74 7.707z" fill="#A7B0BC"/><path d="M10.264 15.393a5.531 5.531 0 01-1.32-1.806 5.137 5.137 0 01-.46-2.133 5.138 5.138 0 01.46-2.132 5.532 5.532 0 011.32-1.806 6.097 6.097 0 011.97-1.21 6.516 6.516 0 012.326-.421 6.516 6.516 0 012.327.42c.737.28 1.407.692 1.97 1.21a5.528 5.528 0 011.32 1.807c.305.676.462 1.4.46 2.132a5.135 5.135 0 01-.46 2.133 5.528 5.528 0 01-1.32 1.806 6.096 6.096 0 01-1.97 1.21 6.516 6.516 0 01-2.327.421 6.516 6.516 0 01-2.326-.42 6.096 6.096 0 01-1.97-1.211zm-.137-3.939c.002 1.078.47 2.111 1.3 2.873.832.762 1.959 1.19 3.135 1.192 1.175-.001 2.302-.43 3.133-1.192s1.299-1.795 1.3-2.873c-.001-1.077-.469-2.11-1.3-2.872-.831-.762-1.958-1.19-3.133-1.191-1.176 0-2.303.43-3.134 1.191-.832.762-1.3 1.795-1.3 2.873z" fill="#A7B0BC"/></svg>
